X:1
T:Quasi adagio
T:Allegretto
T:Béla Bartók Revised and Arranged by the Composer, January 1945 
T:Book 1 (after Hungarian Folksongs)
T:For Children Nr 19, Sz 42
C:Bela bartok
%%score { 1 | ( 2 3 ) }
L:1/8
Q:1/4=126
M:2/4
K:G
V:1 treble nm="Piano"
V:2 bass 
V:3 bass 
V:1
"^Allegretto,"!p! .!4!D.!3!D.!2!D.!1!D |[M:4/4] .!4!B2 (!3!B2 A2) .G2 | %2
 .!2!A.!1!A.!4!B.!3!B .!2!A.!1!E.!4!A.G | .F !1!D3 !1!D4 |[M:2/4] .!4!D.!3!D.!2!D.!1!D | %5
[M:4/4] .!4!B2 (!3!B2 A2) .G2 | .!2!A.!1!A.!4!B.!3!B .!2!A.!1!E.A.G | .F !1!D3 !1!D4 | %8
!f! !tenuto!!4!d2 !tenuto!!3!d2 !tenuto!!2!d2 (!2!c2 | %9
 B2) !tenuto!!5
1
![Ae]2 !tenuto!!5
1
![Gd]2 (!4
2
![FA]2 | !1!G).!2!G.c.B A4 | %11
[M:2/4]!p! .!4!D.!3!D.!2!D.!1!D |[M:4/4] .!4!B2 (!3!B2 A2) .G2 | %13
 .!2!A.!1!A.!4!B.!3!B .!2!A.!1!E.!4!A.G | .^F .D3!<(! !1!D4!<)! | %15
!f! !tenuto!!4!d2 !tenuto!!3!d2 !tenuto!!2!d2 (!2!c2 | %16
 B2) !tenuto!!5
1
![Ae]2 !tenuto!!5
1
![Gd]2 (!4
2
![FA]2 | !1!G).!2!G.c.B A4 | %18
[M:2/4]!p! .!4!D.!3!D.!2!D.!1!D |[M:4/4] .!4!B2 (!3!B2 A2) G2 | %20
 .!2!A.!1!A.!4!B.!3!B .!2!A.!1!E.!4!A.G |!<(! .F D3!<)!!f! D4 |] %22
V:2
 z4 |[M:4/4]!ped! .!5!G,,2 D4!ped-up! .D2 | .D2 .D2 .D2 .^C2 | %3
 z2!ped! (!1
3
5
![D,F,A,]4 !2
4
5
![E,G,^C]2)!ped-up! |[M:2/4] z2 !1
2
4
![F,A,=C]2 | %5
[M:4/4]!ped! .!5!G,,2 D4!ped-up! D2- | D2 .D2 .D2 .^C2 | z2!<(! !tenuto![G,_B,]4!<)! .[G,B,]2 | %8
 z2 !tenuto!!1
3
5
![D,F,A,]2 !tenuto!!1
2
4
![E,G,B,]2!ped! (!1
3
5
![F,A,C]2!ped-up! | %9
 [G,B,D]2) !tenuto!!2
5
![CF]2 !tenuto!!1
5
![B,E]2!ped! (!1
5
![D,C]2!ped-up! | %10
 !1
4
![E,B,]2)[K:treble] .!1
3
![EG].[DF] !1
3
![^CE]4 |[M:2/4] z4 | %12
[M:4/4][K:bass]!ped! .!5!G,,2!ped-up! (!2
3
4
![=F,G,B,]4 !1
3
5
![E,G,C]2) | %13
 z2 .!1
3
![D=F]2 .[^CE]2 .[B,D]2 | z2 (!2
4
![_B,^C]4 !1
5
![A,=C]2) | %15
 z2 !tenuto!!1
3
5
![G,B,D]2 !tenuto!!1
2
5
![G,CE]2 (!1
2
5
![G,DF]2 | %16
 !1!G2) !tenuto!!2
5
![CF]2 !tenuto!!1
5
![B,E]2!ped! (!1
5
![D,C]2 | %17
 !1
4
![E,B,]2)!ped-up![K:treble] .!1
3
![EG].[DF] !1
3
![^CE]4 |[M:2/4] z4 | %19
[M:4/4][K:bass]!ped! .!5!G,,2 (!2
3
4
![=F,G,B,]4!ped-up! !1
3
5
![E,G,C]2) | %20
 z2 .!3
5
![A,^C]2 .[B,D]2 .[CE]2 | z2 .!1
2
5
![^C,G,_B,]2 !1
3
5
![D,F,A,]4 |] %22
V:3
 x4 |[M:4/4] x2 (!1
3
!G,2 !4!F,2) .E,2 | .F,2 .G,2 .!1
2
!A,2 .!2
4
!A,2 | x8 |[M:2/4] x4 | %5
[M:4/4] x2 (!1
3
!G,2 !4!F,2) (E,2 | !4!^E,2) .!4!F,2 .!1
3
!G,2 .!2
4
!A,2 | %7
 x2 !tenuto!!1
2
5
!C,4 .!1
2
5
!^C,2 | x8 | x8 | x2[K:treble] x6 |[M:2/4] x4 |[M:4/4][K:bass] x8 | %13
 x8 | x8 | x8 | x8 | x2[K:treble] x6 |[M:2/4] x4 |[M:4/4][K:bass] x8 | x8 | x8 |] %22

